Numix-GalliumOS/64/mimetypes/application-vnd.oasis.opendocument.master-document.svg

<svg xmlns="http://www.w3.org/2000/svg" xmlns:xlink="http://www.w3.org/1999/xlink" width="64px" height="64px" viewBox="0 0 64 64" version="1.1">
<g id="surface1">
<path style=" stroke:none;fill-rule:nonzero;fill:rgb(21.568627%,40%,62.352941%);fill-opacity:1;" d="M 10.671875 0 C 9.296875 0 8 1.355469 8 2.789062 L 8 61.210938 C 8 62.566406 9.375 64 10.671875 64 L 53.328125 64 C 54.625 64 56 62.566406 56 61.210938 L 56 18 L 38 0 Z M 10.671875 0 "/>
<path style=" stroke:none;fill-rule:nonzero;fill:rgb(0%,0%,0%);fill-opacity:0.196078;" d="M 42 18 L 56 32 L 56 18 Z M 42 18 "/>
<path style=" stroke:none;fill-rule:nonzero;fill:rgb(100%,100%,100%);fill-opacity:0.392157;" d="M 38 0 L 55.984375 18 L 40.757812 18 C 39.410156 18 38 16.574219 38 15.226562 Z M 38 0 "/>
<path style=" stroke:none;fill-rule:nonzero;fill:rgb(100%,100%,100%);fill-opacity:1;" d="M 21.996094 21.996094 L 22 30 L 24 30 L 24 24 L 30 24 L 30 22 Z M 21.996094 21.996094 "/>
<path style=" stroke:none;fill-rule:nonzero;fill:rgb(100%,100%,100%);fill-opacity:1;" d="M 42.003906 21.996094 L 42 30 L 40 30 L 40 24 L 34 24 L 34 22 Z M 42.003906 21.996094 "/>
<path style=" stroke:none;fill-rule:nonzero;fill:rgb(0%,0%,0%);fill-opacity:0.196078;" d="M 8 48 L 8 61.335938 C 8 62.632812 9.375 64 10.664062 64 L 53.335938 64 C 54.625 64 56 62.632812 56 61.335938 L 56 48 Z M 8 48 "/>
<path style=" stroke:none;fill-rule:nonzero;fill:rgb(100%,100%,100%);fill-opacity:1;" d="M 20.097656 56.503906 C 20.097656 57.039062 20.113281 57.542969 20.15625 58.011719 C 20.207031 58.472656 20.296875 58.875 20.433594 59.21875 C 20.574219 59.5625 20.769531 59.832031 21.019531 60.03125 C 21.269531 60.230469 21.605469 60.332031 22.023438 60.332031 C 22.433594 60.332031 22.761719 60.230469 23.011719 60.03125 C 23.273438 59.832031 23.472656 59.5625 23.609375 59.21875 C 23.75 58.859375 23.84375 58.457031 23.882812 57.996094 C 23.933594 57.535156 23.960938 57.039062 23.960938 56.503906 C 23.960938 55.976562 23.933594 55.480469 23.882812 55.019531 C 23.84375 54.542969 23.75 54.140625 23.609375 53.796875 C 23.472656 53.453125 23.28125 53.1875 23.03125 52.984375 C 22.785156 52.785156 22.445312 52.683594 22.023438 52.683594 C 21.605469 52.683594 21.269531 52.785156 21.019531 52.984375 C 20.769531 53.1875 20.574219 53.460938 20.433594 53.816406 C 20.296875 54.15625 20.207031 54.558594 20.15625 55.019531 C 20.113281 55.480469 20.097656 55.976562 20.097656 56.503906 M 17.625 56.503906 C 17.625 54.617188 18.019531 53.195312 18.789062 52.238281 C 19.570312 51.269531 20.640625 50.789062 22.023438 50.789062 C 23.457031 50.789062 24.554688 51.269531 25.300781 52.238281 C 26.046875 53.195312 26.421875 54.617188 26.421875 56.503906 C 26.421875 58.398438 26.046875 59.820312 25.285156 60.792969 C 24.519531 61.75 23.441406 62.226562 22.050781 62.226562 C 20.617188 62.226562 19.519531 61.75 18.757812 60.792969 C 18.003906 59.820312 17.625 58.398438 17.625 56.503906 "/>
<path style=" stroke:none;fill-rule:nonzero;fill:rgb(100%,100%,100%);fill-opacity:1;" d="M 30.445312 60.222656 C 30.511719 60.242188 30.585938 60.242188 30.664062 60.242188 C 30.746094 60.242188 30.8125 60.242188 30.878906 60.242188 C 31.433594 60.242188 31.894531 60.148438 32.261719 59.957031 C 32.648438 59.769531 32.949219 59.511719 33.167969 59.175781 C 33.410156 58.851562 33.570312 58.464844 33.660156 58.011719 C 33.769531 57.550781 33.820312 57.046875 33.820312 56.503906 C 33.820312 56.035156 33.777344 55.574219 33.703125 55.121094 C 33.621094 54.675781 33.484375 54.285156 33.285156 53.941406 C 33.09375 53.597656 32.824219 53.328125 32.480469 53.128906 C 32.136719 52.910156 31.699219 52.808594 31.15625 52.808594 C 31.054688 52.808594 30.929688 52.808594 30.804688 52.824219 C 30.671875 52.824219 30.554688 52.835938 30.445312 52.859375 L 30.445312 60.222656 M 36.285156 56.503906 C 36.285156 57.527344 36.140625 58.390625 35.847656 59.109375 C 35.570312 59.820312 35.1875 60.398438 34.691406 60.84375 C 34.1875 61.296875 33.59375 61.621094 32.890625 61.832031 C 32.210938 62.035156 31.449219 62.132812 30.628906 62.132812 C 30.191406 62.132812 29.765625 62.117188 29.347656 62.066406 C 28.9375 62.035156 28.492188 61.964844 28.023438 61.875 L 28.023438 51.175781 C 28.574219 51.066406 29.09375 51 29.582031 50.964844 C 30.066406 50.933594 30.519531 50.90625 30.9375 50.90625 C 31.742188 50.90625 32.472656 51.015625 33.132812 51.234375 C 33.804688 51.445312 34.367188 51.777344 34.824219 52.238281 C 35.285156 52.691406 35.640625 53.269531 35.890625 53.972656 C 36.15625 54.667969 36.285156 55.515625 36.285156 56.503906 "/>
<path style=" stroke:none;fill-rule:nonzero;fill:rgb(100%,100%,100%);fill-opacity:1;" d="M 39.996094 51.03125 C 40.085938 51.285156 40.195312 51.601562 40.332031 51.988281 C 40.472656 52.382812 40.625 52.800781 40.78125 53.246094 C 40.941406 53.699219 41.101562 54.148438 41.253906 54.609375 C 41.410156 55.070312 41.5625 55.5 41.710938 55.882812 C 41.863281 55.449219 42.03125 55.003906 42.199219 54.542969 C 42.375 54.066406 42.535156 53.621094 42.691406 53.195312 C 42.851562 52.757812 42.996094 52.347656 43.128906 51.972656 C 43.261719 51.59375 43.378906 51.285156 43.480469 51.03125 L 45.5 51.03125 C 45.59375 51.988281 45.675781 52.925781 45.75 53.832031 C 45.84375 54.746094 45.917969 55.640625 45.96875 56.546875 C 46.035156 57.425781 46.085938 58.320312 46.128906 59.234375 C 46.167969 60.132812 46.203125 61.054688 46.230469 62 L 44 62 L 44.117188 53.480469 L 42.617188 58.121094 L 40.839844 58.121094 L 39.402344 53.480469 L 39.5 62 L 37.273438 62 C 37.3125 61.09375 37.347656 60.164062 37.390625 59.203125 C 37.441406 58.230469 37.5 57.265625 37.550781 56.3125 C 37.597656 55.355469 37.65625 54.425781 37.726562 53.53125 C 37.800781 52.632812 37.890625 51.804688 37.984375 51.03125 L 39.996094 51.03125 "/>
<path style=" stroke:none;fill-rule:nonzero;fill:rgb(100%,100%,100%);fill-opacity:1;" d="M 42.003906 42.003906 L 42 34 L 40 34 L 40 40 L 34 40 L 34 42 Z M 42.003906 42.003906 "/>
<path style=" stroke:none;fill-rule:nonzero;fill:rgb(100%,100%,100%);fill-opacity:1;" d="M 21.996094 42.003906 L 22 34 L 24 34 L 24 40 L 30 40 L 30 42 Z M 21.996094 42.003906 "/>
</g>
</svg>

<svg xmlns="http://www.w3.org/2000/svg" viewBox="0 0 64 64">
 <g>
  <path d="m 10.672 0 c -1.375 0 -2.672 1.355 -2.672 2.789 l 0 58.42 c 0 1.355 1.375 2.789 2.672 2.789 l 42.656 0 c 1.297 0 2.672 -1.434 2.672 -2.789 l 0 -43.21 l -18 -18 m -27.328 0" style="fill:#36669e;fill-opacity:1;stroke:none;fill-rule:nonzero"/>
  <path d="m 42 18 l 14 14 l 0 -14 m -14 0" style="fill:#000;fill-opacity:0.196;stroke:none;fill-rule:nonzero"/>
  <path d="m 38 0 l 17.984 18 l -15.227 0 c -1.348 0 -2.758 -1.426 -2.758 -2.773 m 0 -15.227" style="fill:#fff;fill-opacity:0.392;stroke:none;fill-rule:nonzero"/>
  <path d="m 21.996 21.996 l 0.004 8 l 2 0 l 0 -6 l 6 0 l 0 -2 m -8 -0.004" style="fill:#fff;fill-opacity:1;stroke:none;fill-rule:nonzero"/>
  <path d="m 42 21.996 l -0.004 8 l -2 0 l 0 -6 l -6 0 l 0 -2 m 8 -0.004" style="fill:#fff;fill-opacity:1;stroke:none;fill-rule:nonzero"/>
  <path d="m 8 48 l 0 13.336 c 0 1.297 1.375 2.664 2.664 2.664 l 42.672 0 c 1.289 0 2.664 -1.367 2.664 -2.664 l 0 -13.336 m -48 0" style="fill:#000;fill-opacity:0.196;stroke:none;fill-rule:nonzero"/>
  <path d="m 20.1 56.5 c 0 0.535 0.016 1.039 0.059 1.508 c 0.051 0.461 0.141 0.863 0.277 1.207 c 0.141 0.344 0.336 0.613 0.586 0.813 c 0.25 0.199 0.586 0.301 1 0.301 c 0.41 0 0.738 -0.102 0.988 -0.301 c 0.262 -0.199 0.461 -0.469 0.598 -0.813 c 0.141 -0.359 0.234 -0.762 0.273 -1.223 c 0.051 -0.461 0.078 -0.957 0.078 -1.492 c 0 -0.527 -0.027 -1.023 -0.078 -1.484 c -0.039 -0.477 -0.133 -0.879 -0.273 -1.223 c -0.137 -0.344 -0.328 -0.609 -0.578 -0.813 c -0.246 -0.199 -0.586 -0.301 -1.01 -0.301 c -0.418 0 -0.754 0.102 -1 0.301 c -0.25 0.203 -0.445 0.477 -0.586 0.832 c -0.137 0.34 -0.227 0.742 -0.277 1.203 c -0.043 0.461 -0.059 0.957 -0.059 1.484 m -2.473 0 c 0 -1.887 0.395 -3.309 1.164 -4.266 c 0.781 -0.969 1.852 -1.449 3.234 -1.449 c 1.434 0 2.531 0.48 3.277 1.449 c 0.746 0.957 1.121 2.379 1.121 4.266 c 0 1.895 -0.375 3.316 -1.137 4.289 c -0.766 0.957 -1.844 1.434 -3.234 1.434 c -1.434 0 -2.531 -0.477 -3.293 -1.434 c -0.754 -0.973 -1.133 -2.395 -1.133 -4.289" style="fill:#fff;fill-opacity:1;stroke:none;fill-rule:nonzero"/>
  <path d="m 30.445 60.22 c 0.066 0.02 0.141 0.02 0.219 0.02 c 0.082 0 0.148 0 0.215 0 c 0.555 0 1.016 -0.094 1.383 -0.285 c 0.387 -0.188 0.688 -0.445 0.906 -0.781 c 0.242 -0.324 0.402 -0.711 0.492 -1.164 c 0.109 -0.461 0.16 -0.965 0.16 -1.508 c 0 -0.469 -0.043 -0.93 -0.117 -1.383 c -0.082 -0.445 -0.219 -0.836 -0.418 -1.18 c -0.191 -0.344 -0.461 -0.613 -0.805 -0.813 c -0.344 -0.219 -0.781 -0.32 -1.324 -0.32 c -0.102 0 -0.227 0 -0.352 0.016 c -0.133 0 -0.25 0.012 -0.359 0.035 l 0 7.363 m 5.84 -3.719 c 0 1.023 -0.145 1.887 -0.438 2.605 c -0.277 0.711 -0.66 1.289 -1.156 1.734 c -0.504 0.453 -1.098 0.777 -1.801 0.988 c -0.68 0.203 -1.441 0.301 -2.262 0.301 c -0.438 0 -0.863 -0.016 -1.281 -0.066 c -0.41 -0.031 -0.855 -0.102 -1.324 -0.191 l 0 -10.699 c 0.551 -0.109 1.07 -0.176 1.559 -0.211 c 0.484 -0.031 0.938 -0.059 1.355 -0.059 c 0.805 0 1.535 0.109 2.195 0.328 c 0.672 0.211 1.234 0.543 1.691 1 c 0.461 0.453 0.816 1.031 1.066 1.734 c 0.266 0.695 0.395 1.543 0.395 2.531" style="fill:#fff;fill-opacity:1;stroke:none;fill-rule:nonzero"/>
  <path d="m 39.996 51.03 c 0.09 0.254 0.199 0.57 0.336 0.957 c 0.141 0.395 0.293 0.813 0.449 1.258 c 0.16 0.453 0.32 0.902 0.473 1.363 c 0.156 0.461 0.309 0.891 0.457 1.273 c 0.152 -0.434 0.32 -0.879 0.488 -1.34 c 0.176 -0.477 0.336 -0.922 0.492 -1.348 c 0.16 -0.438 0.305 -0.848 0.438 -1.223 c 0.133 -0.379 0.25 -0.688 0.352 -0.941 l 2.02 0 c 0.094 0.957 0.176 1.895 0.25 2.801 c 0.094 0.914 0.168 1.809 0.219 2.715 c 0.066 0.879 0.117 1.773 0.16 2.688 c 0.039 0.898 0.074 1.82 0.102 2.766 l -2.23 0 l 0.117 -8.52 l -1.5 4.641 l -1.777 0 l -1.438 -4.641 l 0.098 8.52 l -2.227 0 c 0.039 -0.906 0.074 -1.836 0.117 -2.797 c 0.051 -0.973 0.109 -1.938 0.16 -2.891 c 0.047 -0.957 0.105 -1.887 0.176 -2.781 c 0.074 -0.898 0.164 -1.727 0.258 -2.5 l 2.01 0" style="fill:#fff;fill-opacity:1;stroke:none;fill-rule:nonzero"/>
  <path d="m 42 42 l -0.004 -8 l -2 0 l 0 6 l -6 0 l 0 2 m 8 0.004" style="fill:#fff;fill-opacity:1;stroke:none;fill-rule:nonzero"/>
  <path d="m 21.996 42 l 0.004 -8 l 2 0 l 0 6 l 6 0 l 0 2 m -8 0.004" style="fill:#fff;fill-opacity:1;stroke:none;fill-rule:nonzero"/>
 </g>
</svg>
